X:63
M:2/4
L:1/8
K:A
|: f(dd)f | e(cc)e | d(BB)c | dBGE | f(dd)f | e(aa)d | cAEG | A2 A,2 :|

